resource/g8.svg

<?xml version="1.0" encoding="UTF-8"?>
<svg width="45mm" height="45mm" version="1.1" viewBox="0 0 45 45" xmlns="http://www.w3.org/2000/svg">
 <g transform="translate(0,-252)">
  <g transform="matrix(.35278 0 0 -.35278 -64.853 316.5)">
   <g transform="translate(247.61 133.5)">
    <path d="m0 0 38.339 5.687 8.438-71.94-46.777-10.236-46.775 10.236 8.438 71.94z" fill="#7d40a7" fill-rule="evenodd"/>
   </g>
   <g transform="translate(247.61 133.5)">
    <path d="m0 0v-76.489l-46.775 10.238 8.438 71.939z" fill="#9159b9" fill-rule="evenodd"/>
   </g>
   <g transform="translate(247.61 153.23)">
    <path d="m0 0 3.37-19.234-3.37-16.95-46.667 7.99 2.283 20.315z" fill="#9159b9" fill-rule="evenodd"/>
   </g>
   <g transform="translate(292 145.35)">
    <path d="m0 0-44.387-6.617v-21.688l46.669 7.989z" fill="#7d40a7" fill-rule="evenodd"/>
   </g>
   <g transform="translate(247.61 138.74)">
    <path d="M 0,0 -44.384,6.617 0,14.496 44.387,6.617 Z" fill="#b881df" fill-rule="evenodd"/>
   </g>
   <g transform="translate(288.22 119.88)">
    <path d="m0 0-0.475 4.037-40.129-6.869v-4.331z" fill="#642d8b" fill-rule="evenodd"/>
   </g>
   <g transform="translate(247.61 117.05)">
    <path d="m0 0-40.128 6.869-0.434-3.692 40.562-7.508z" fill="#7d40a7" fill-rule="evenodd"/>
   </g>
   <g transform="translate(231.71 141.11)">
    <path d="M 0,0 15.9,2.888 31.802,0 44.607,1.909 25.624,5.99 39.647,7.91 30.05,9.614 15.9,8.112 1.752,9.614 -7.846,7.91 6.178,5.99 -12.805,1.909 Z" fill="#f1ce41" fill-rule="evenodd"/>
   </g>
   <g transform="translate(219.46 117.93)">
    <path d="m0 0-4.676-53.738 13.377-2.926 4.152 54.284zm-1.003 19.893-1.358-15.55 2.699-0.463 10.338-1.77 1.191 15.873 0.389 5.194-12.805 1.908z" fill="#efb735" fill-rule="evenodd"/>
   </g>
   <g transform="translate(263.9 135.92)">
    <path d="m0 0 1.19-15.873 10.339 1.769 2.698 0.464-1.357 15.55-0.455 5.192-12.805-1.909zm-0.975-20.495 4.139-54.153 13.378 2.927-4.655 53.496z" fill="#e5a21c" fill-rule="evenodd"/>
   </g>
   <g transform="translate(262.61 119.62)">
    <path d="m0 0 0.323-4.195 12.862 2.269-0.358 4.121-10.34-1.769z" fill="#c87a12" fill-rule="evenodd"/>
   </g>
   <g transform="translate(219.46 117.93)">
    <path d="m0 0 12.853-2.38 0.31 4.064-2.487 0.426-10.338 1.77z" fill="#e5a21c" fill-rule="evenodd"/>
   </g>
   <g transform="translate(265.55 179.04)">
    <path d="m0 0c3.4-14.86-4.892-27.275-17.957-33.923l-0.41 5.586c6.061 3.13 18.224 13.866 9.588 20.289l3.646 6.527z" fill="#e5a21c" fill-rule="evenodd"/>
   </g>
   <g transform="translate(244.99 145.9)">
    <path d="m0 0s1.118 31.195 6.719 33.857c5.6 2.662 11.633 0.864 13.833-0.721-6.296-2.564-17.62-25.236-17.957-33.922z" fill="#f1ce41" fill-rule="evenodd"/>
   </g>
   <g transform="translate(266.01 176.09)">
    <path d="m0 0c-0.201 1.817-0.463 2.952-0.463 2.952-2.232-0.907-5.1-4.347-7.883-8.796 0.702-0.668 1.212-1.374 1.552-2.103 1.944 2.742 4.207 5.391 6.794 7.947" fill="#c87a12" fill-rule="evenodd"/>
   </g>
   <g transform="translate(250.84 147.18)">
    <path d="m0 0c0.318 2.394 0.818 4.739 1.503 7.028-1.14-0.943-2.29-1.772-3.357-2.452-0.819-2.59-1.329-4.892-1.398-6.633 0 0 1.216 0.616 3.252 2.057" fill="#c87a12" fill-rule="evenodd"/>
   </g>
   <g transform="translate(281.6 157.69)">
    <path d="m0 0c-7.723-13.143-22.275-16.483-36.34-12.353l3.534 4.344c6.557-1.881 22.771-2.419 20.897 8.178l7.13 2.248z" fill="#e5a21c" fill-rule="evenodd"/>
   </g>
   <g transform="translate(243.91 147.68)">
    <path d="m0 0s22.22 21.925 28.121 20.019c5.899-1.908 9.054-7.355 9.568-10.019-6.34 2.456-30.135-6.266-36.34-12.353z" fill="#f1ce41" fill-rule="evenodd"/>
   </g>
   <g transform="translate(279.91 155.22)">
    <path d="m0 0c1.1 1.463 1.689 2.466 1.689 2.466-2.248 0.872-6.695 0.337-11.771-0.989 0.052-0.968-0.06-1.831-0.314-2.595 3.294 0.661 6.758 1.034 10.396 1.118" fill="#c87a12" fill-rule="evenodd"/>
   </g>
   <g transform="translate(249.04 144.6)">
    <path d="m0 0c1.874 1.522 3.845 2.883 5.915 4.078-1.475 0.099-2.882 0.285-4.125 0.521-2.373-1.322-4.323-2.645-5.567-3.865 0 0 1.306-0.386 3.777-0.734" fill="#c87a12" fill-rule="evenodd"/>
   </g>
   <g transform="translate(225.82 179.04)">
    <path d="m0 0c-3.4-14.86 4.893-27.275 17.959-33.923l0.409 5.586c-6.061 3.13-18.224 13.866-9.588 20.289l-3.647 6.527z" fill="#e5a21c" fill-rule="evenodd"/>
   </g>
   <g transform="translate(246.37 145.9)">
    <path d="m0 0s-1.118 31.195-6.718 33.857c-5.601 2.663-11.633 0.864-13.834-0.721 6.297-2.564 17.62-25.236 17.958-33.924z" fill="#f1ce41" fill-rule="evenodd"/>
   </g>
   <g transform="translate(225.36 176.09)">
    <path d="m0 0c0.203 1.816 0.463 2.951 0.463 2.951 2.234-0.908 5.101-4.349 7.884-8.798-0.702-0.667-1.212-1.372-1.551-2.102-1.945 2.742-4.208 5.391-6.796 7.949" fill="#c87a12" fill-rule="evenodd"/>
   </g>
   <g transform="translate(240.53 147.18)">
    <path d="m0 0c-0.319 2.394-0.817 4.737-1.502 7.028 1.14-0.943 2.289-1.773 3.355-2.452 0.82-2.591 1.33-4.892 1.399-6.634 0 0-1.216 0.617-3.252 2.058" fill="#c87a12" fill-rule="evenodd"/>
   </g>
   <g transform="translate(209.77 157.69)">
    <path d="m0 0c7.725-13.143 22.277-16.483 36.342-12.353l-3.535 4.344c-6.557-1.881-22.771-2.419-20.898 8.178l-7.129 2.248z" fill="#e5a21c" fill-rule="evenodd"/>
   </g>
   <g transform="translate(247.46 147.68)">
    <path d="m0 0s-22.221 21.926-28.121 20.017c-5.901-1.906-9.053-7.353-9.568-10.017 6.342 2.456 30.136-6.265 36.342-12.353z" fill="#f1ce41" fill-rule="evenodd"/>
   </g>
   <g transform="translate(211.46 155.22)">
    <path d="m0 0c-1.098 1.461-1.689 2.466-1.689 2.466 2.249 0.872 6.696 0.337 11.773-0.991-0.053-0.966 0.059-1.829 0.313-2.593-3.294 0.661-6.76 1.033-10.397 1.118" fill="#c87a12" fill-rule="evenodd"/>
   </g>
   <g transform="translate(242.33 144.6)">
    <path d="m0 0c-1.874 1.522-3.845 2.883-5.914 4.08 1.474 0.099 2.881 0.283 4.124 0.519 2.374-1.32 4.324-2.645 5.567-3.865 0 0-1.306-0.386-3.777-0.734" fill="#c87a12" fill-rule="evenodd"/>
   </g>
  </g>
 </g>
</svg>

<?xml version="1.0" encoding="UTF-8" standalone="no"?>
<!-- Created with Inkscape (http://www.inkscape.org/) -->

<svg
   xmlns:dc="http://purl.org/dc/elements/1.1/"
   xmlns:cc="http://creativecommons.org/ns#"
   xmlns:rdf="http://www.w3.org/1999/02/22-rdf-syntax-ns#"
   xmlns:svg="http://www.w3.org/2000/svg"
   xmlns="http://www.w3.org/2000/svg"
   xmlns:sodipodi="http://sodipodi.sourceforge.net/DTD/sodipodi-0.dtd"
   xmlns:inkscape="http://www.inkscape.org/namespaces/inkscape"
   width="45mm"
   height="45mm"
   viewBox="0 0 45 45"
   version="1.1"
   id="svg2965"
   inkscape:version="0.92.3 (2405546, 2018-03-11)"
   sodipodi:docname="g7.svg">
  <defs
     id="defs2959" />
  <sodipodi:namedview
     id="base"
     pagecolor="#ffffff"
     bordercolor="#666666"
     borderopacity="1.0"
     inkscape:pageopacity="0.0"
     inkscape:pageshadow="2"
     inkscape:zoom="1.979899"
     inkscape:cx="80.236019"
     inkscape:cy="92.343565"
     inkscape:document-units="mm"
     inkscape:current-layer="layer1"
     showgrid="false"
     units="mm"
     width="50mm"
     inkscape:window-width="958"
     inkscape:window-height="1023"
     inkscape:window-x="0"
     inkscape:window-y="0"
     inkscape:window-maximized="0" />
  <metadata
     id="metadata2962">
    <rdf:RDF>
      <cc:Work
         rdf:about="">
        <dc:format>image/svg+xml</dc:format>
        <dc:type
           rdf:resource="http://purl.org/dc/dcmitype/StillImage" />
        <dc:title></dc:title>
      </cc:Work>
    </rdf:RDF>
  </metadata>
  <g
     inkscape:label="Layer 1"
     inkscape:groupmode="layer"
     id="layer1"
     transform="translate(0,-252)">
    <g
       transform="matrix(0.35277777,0,0,-0.35277777,-64.852679,316.50377)"
       id="g5476">
      <g
         transform="translate(247.6129,133.4999)"
         id="g952">
        <path
           inkscape:connector-curvature="0"
           id="path954"
           style="fill:#7d40a7;fill-opacity:1;fill-rule:evenodd;stroke:none"
           d="M 0,0 38.339,5.687 46.777,-66.253 0,-76.489 l -46.775,10.236 8.438,71.94 z" />
      </g>
      <g
         transform="translate(247.6129,133.4986)"
         id="g956">
        <path
           inkscape:connector-curvature="0"
           id="path958"
           style="fill:#9159b9;fill-opacity:1;fill-rule:evenodd;stroke:none"
           d="m 0,0 v -76.489 l -46.775,10.238 8.438,71.939 z" />
      </g>
      <g
         transform="translate(247.6129,153.2336)"
         id="g960">
        <path
           inkscape:connector-curvature="0"
           id="path962"
           style="fill:#9159b9;fill-opacity:1;fill-rule:evenodd;stroke:none"
           d="M 0,0 3.37,-19.234 0,-36.184 l -46.667,7.99 2.283,20.315 z" />
      </g>
      <g
         transform="translate(291.9999,145.3544)"
         id="g964">
        <path
           inkscape:connector-curvature="0"
           id="path966"
           style="fill:#7d40a7;fill-opacity:1;fill-rule:evenodd;stroke:none"
           d="m 0,0 -44.387,-6.617 v -21.688 l 46.669,7.989 z" />
      </g>
      <g
         transform="translate(247.6129,138.7369)"
         id="g968">
        <path
           inkscape:connector-curvature="0"
           id="path970"
           style="fill:#b881df;fill-opacity:1;fill-rule:evenodd;stroke:none"
           d="M 0,0 -44.384,6.617 0,14.496 44.387,6.617 Z" />
      </g>
      <g
         transform="translate(288.217,119.882)"
         id="g972">
        <path
           inkscape:connector-curvature="0"
           id="path974"
           style="fill:#642d8b;fill-opacity:1;fill-rule:evenodd;stroke:none"
           d="M 0,0 -0.475,4.037 -40.604,-2.832 V -7.163 Z" />
      </g>
      <g
         transform="translate(247.6129,117.0495)"
         id="g976">
        <path
           inkscape:connector-curvature="0"
           id="path978"
           style="fill:#7d40a7;fill-opacity:1;fill-rule:evenodd;stroke:none"
           d="M 0,0 -40.128,6.869 -40.562,3.177 0,-4.331 Z" />
      </g>
      <g
         transform="translate(231.713,141.1086)"
         id="g980">
        <path
           inkscape:connector-curvature="0"
           id="path982"
           style="fill:#f1ce41;fill-opacity:1;fill-rule:evenodd;stroke:none"
           d="M 0,0 15.9,2.888 31.802,0 44.607,1.909 25.624,5.99 39.647,7.91 30.05,9.614 15.9,8.112 1.752,9.614 -7.846,7.91 6.178,5.99 -12.805,1.909 Z" />
      </g>
      <g
         transform="translate(219.4568,117.932)"
         id="g984">
        <path
           inkscape:connector-curvature="0"
           id="path986"
           style="fill:#efb735;fill-opacity:1;fill-rule:evenodd;stroke:none"
           d="M 0,0 -4.676,-53.738 8.701,-56.664 12.853,-2.38 Z M -1.003,19.893 -2.361,4.343 0.338,3.88 10.676,2.11 l 1.191,15.873 0.389,5.194 -12.805,1.908 z" />
      </g>
      <g
         transform="translate(263.905,135.9153)"
         id="g988">
        <path
           inkscape:connector-curvature="0"
           id="path990"
           style="fill:#e5a21c;fill-opacity:1;fill-rule:evenodd;stroke:none"
           d="m 0,0 1.19,-15.873 10.339,1.769 2.698,0.464 L 12.87,1.91 12.415,7.102 -0.39,5.193 Z m -0.975,-20.495 4.139,-54.153 13.378,2.927 -4.655,53.496 z" />
      </g>
      <g
         transform="translate(262.6071,119.6162)"
         id="g992">
        <path
           inkscape:connector-curvature="0"
           id="path994"
           style="fill:#c87a12;fill-opacity:1;fill-rule:evenodd;stroke:none"
           d="M 0,0 0.323,-4.195 13.185,-1.926 12.827,2.195 2.487,0.426 Z" />
      </g>
      <g
         transform="translate(219.4568,117.932)"
         id="g996">
        <path
           inkscape:connector-curvature="0"
           id="path998"
           style="fill:#e5a21c;fill-opacity:1;fill-rule:evenodd;stroke:none"
           d="M 0,0 12.853,-2.38 13.163,1.684 10.676,2.11 0.338,3.88 Z" />
      </g>
      <g
         transform="translate(265.5466,179.0406)"
         id="g1000">
        <path
           inkscape:connector-curvature="0"
           id="path1002"
           style="fill:#e5a21c;fill-opacity:1;fill-rule:evenodd;stroke:none"
           d="m 0,0 c 3.4,-14.86 -4.892,-27.275 -17.957,-33.923 l -0.41,5.586 c 6.061,3.13 18.224,13.866 9.588,20.289 l 3.646,6.527 z" />
      </g>
      <g
         transform="translate(244.9946,145.9048)"
         id="g1004">
        <path
           inkscape:connector-curvature="0"
           id="path1006"
           style="fill:#f1ce41;fill-opacity:1;fill-rule:evenodd;stroke:none"
           d="m 0,0 c 0,0 1.118,31.195 6.719,33.857 5.6,2.662 11.633,0.864 13.833,-0.721 C 14.256,30.572 2.932,7.9 2.595,-0.786 Z" />
      </g>
      <g
         transform="translate(266.01,176.0881)"
         id="g1008">
        <path
           inkscape:connector-curvature="0"
           id="path1010"
           style="fill:#c87a12;fill-opacity:1;fill-rule:evenodd;stroke:none"
           d="m 0,0 c -0.201,1.817 -0.463,2.952 -0.463,2.952 -2.232,-0.907 -5.1,-4.347 -7.883,-8.796 0.702,-0.668 1.212,-1.374 1.552,-2.103 C -4.85,-5.205 -2.587,-2.556 0,0" />
      </g>
      <g
         transform="translate(250.8408,147.1757)"
         id="g1012">
        <path
           inkscape:connector-curvature="0"
           id="path1014"
           style="fill:#c87a12;fill-opacity:1;fill-rule:evenodd;stroke:none"
           d="m 0,0 c 0.318,2.394 0.818,4.739 1.503,7.028 -1.14,-0.943 -2.29,-1.772 -3.357,-2.452 -0.819,-2.59 -1.329,-4.892 -1.398,-6.633 0,0 1.216,0.616 3.252,2.057" />
      </g>
      <g
         transform="translate(281.5991,157.6852)"
         id="g1016">
        <path
           inkscape:connector-curvature="0"
           id="path1018"
           style="fill:#e5a21c;fill-opacity:1;fill-rule:evenodd;stroke:none"
           d="m 0,0 c -7.723,-13.143 -22.275,-16.483 -36.34,-12.353 l 3.534,4.344 c 6.557,-1.881 22.771,-2.419 20.897,8.178 l 7.13,2.248 z" />
      </g>
      <g
         transform="translate(243.9104,147.6848)"
         id="g1020">
        <path
           inkscape:connector-curvature="0"
           id="path1022"
           style="fill:#f1ce41;fill-opacity:1;fill-rule:evenodd;stroke:none"
           d="M 0,0 C 0,0 22.22,21.925 28.121,20.019 34.02,18.111 37.175,12.664 37.689,10 31.349,12.456 7.554,3.734 1.349,-2.353 Z" />
      </g>
      <g
         transform="translate(279.9103,155.219)"
         id="g1024">
        <path
           inkscape:connector-curvature="0"
           id="path1026"
           style="fill:#c87a12;fill-opacity:1;fill-rule:evenodd;stroke:none"
           d="M 0,0 C 1.1,1.463 1.689,2.466 1.689,2.466 -0.559,3.338 -5.006,2.803 -10.082,1.477 -10.03,0.509 -10.142,-0.354 -10.396,-1.118 -7.102,-0.457 -3.638,-0.084 0,0" />
      </g>
      <g
         transform="translate(249.0363,144.5986)"
         id="g1028">
        <path
           inkscape:connector-curvature="0"
           id="path1030"
           style="fill:#c87a12;fill-opacity:1;fill-rule:evenodd;stroke:none"
           d="M 0,0 C 1.874,1.522 3.845,2.883 5.915,4.078 4.44,4.177 3.033,4.363 1.79,4.599 -0.583,3.277 -2.533,1.954 -3.777,0.734 -3.777,0.734 -2.471,0.348 0,0" />
      </g>
      <g
         transform="translate(225.8205,179.0406)"
         id="g1032">
        <path
           inkscape:connector-curvature="0"
           id="path1034"
           style="fill:#e5a21c;fill-opacity:1;fill-rule:evenodd;stroke:none"
           d="m 0,0 c -3.4,-14.86 4.893,-27.275 17.959,-33.923 l 0.409,5.586 c -6.061,3.13 -18.224,13.866 -9.588,20.289 l -3.647,6.527 z" />
      </g>
      <g
         transform="translate(246.3729,145.9048)"
         id="g1036">
        <path
           inkscape:connector-curvature="0"
           id="path1038"
           style="fill:#f1ce41;fill-opacity:1;fill-rule:evenodd;stroke:none"
           d="M 0,0 C 0,0 -1.118,31.195 -6.718,33.857 -12.319,36.52 -18.351,34.721 -20.552,33.136 -14.255,30.572 -2.932,7.9 -2.594,-0.788 Z" />
      </g>
      <g
         transform="translate(225.3576,176.0894)"
         id="g1040">
        <path
           inkscape:connector-curvature="0"
           id="path1042"
           style="fill:#c87a12;fill-opacity:1;fill-rule:evenodd;stroke:none"
           d="M 0,0 C 0.203,1.816 0.463,2.951 0.463,2.951 2.697,2.043 5.564,-1.398 8.347,-5.847 7.645,-6.514 7.135,-7.219 6.796,-7.949 4.851,-5.207 2.588,-2.558 0,0" />
      </g>
      <g
         transform="translate(240.5275,147.1757)"
         id="g1044">
        <path
           inkscape:connector-curvature="0"
           id="path1046"
           style="fill:#c87a12;fill-opacity:1;fill-rule:evenodd;stroke:none"
           d="M 0,0 C -0.319,2.394 -0.817,4.737 -1.502,7.028 -0.362,6.085 0.787,5.255 1.853,4.576 2.673,1.985 3.183,-0.316 3.252,-2.058 3.252,-2.058 2.036,-1.441 0,0" />
      </g>
      <g
         transform="translate(209.768,157.6852)"
         id="g1048">
        <path
           inkscape:connector-curvature="0"
           id="path1050"
           style="fill:#e5a21c;fill-opacity:1;fill-rule:evenodd;stroke:none"
           d="m 0,0 c 7.725,-13.143 22.277,-16.483 36.342,-12.353 l -3.535,4.344 C 26.25,-9.89 10.036,-10.428 11.909,0.169 L 4.78,2.417 Z" />
      </g>
      <g
         transform="translate(247.4571,147.6848)"
         id="g1052">
        <path
           inkscape:connector-curvature="0"
           id="path1054"
           style="fill:#f1ce41;fill-opacity:1;fill-rule:evenodd;stroke:none"
           d="M 0,0 C 0,0 -22.221,21.926 -28.121,20.017 -34.022,18.111 -37.174,12.664 -37.689,10 -31.347,12.456 -7.553,3.735 -1.347,-2.353 Z" />
      </g>
      <g
         transform="translate(211.4572,155.219)"
         id="g1056">
        <path
           inkscape:connector-curvature="0"
           id="path1058"
           style="fill:#c87a12;fill-opacity:1;fill-rule:evenodd;stroke:none"
           d="M 0,0 C -1.098,1.461 -1.689,2.466 -1.689,2.466 0.56,3.338 5.007,2.803 10.084,1.475 10.031,0.509 10.143,-0.354 10.397,-1.118 7.103,-0.457 3.637,-0.085 0,0" />
      </g>
      <g
         transform="translate(242.3321,144.5986)"
         id="g1060">
        <path
           inkscape:connector-curvature="0"
           id="path1062"
           style="fill:#c87a12;fill-opacity:1;fill-rule:evenodd;stroke:none"
           d="M 0,0 C -1.874,1.522 -3.845,2.883 -5.914,4.08 -4.44,4.179 -3.033,4.363 -1.79,4.599 0.584,3.279 2.534,1.954 3.777,0.734 3.777,0.734 2.471,0.348 0,0" />
      </g>
    </g>
  </g>
</svg>
